mnt/openstreetmap-carto/symbols/amenity/hospital.svg

<?xml version="1.0" encoding="UTF-8"?>
<svg width="14" height="14" version="1.1" viewBox="0 0 3.7042 3.7042" xmlns="http://www.w3.org/2000/svg">
 <g transform="translate(0 -293.3)">
  <path transform="matrix(.26458 0 0 .26458 0 293.3)" d="m7 0a7 7 0 0 0-7 7 7 7 0 0 0 7 7 7 7 0 0 0 7-7 7 7 0 0 0-7-7zm-1 3h2v3h3v2h-3v3h-2v-3h-3v-2h3v-3z" fill="#000000"/>
 </g>
</svg>

<svg xmlns="http://www.w3.org/2000/svg" width="14" height="14" viewBox="0 0 14 14">
  <path d="M7,0 A7,7 0 0 0 7,14 7,7 0 0 0 7,0 Z M6,3 H8 V6 H11 V8 H8 V11 H6 V8 H3 V6 h3 z"/>
</svg>
